app/clientComponent/section6_contact/images/contactImage2.svg

<svg width="280" height="551" viewBox="0 0 280 551" fill="none" xmlns="http://www.w3.org/2000/svg">
<path d="M62.56 0.5C62.92 0.5 63.1 0.859999 63.1 1.58C63.1 2.29999 62.92 2.65999 62.56 2.65999C59.2 2.65999 56.68 3.01999 55 3.73999C53.44 4.46 52.36 5.72 51.76 7.52C51.28 9.2 51.04 11.84 51.04 15.44V115.16C51.04 128.12 47.86 138.26 41.5 145.58C35.26 153.02 26.44 156.74 15.04 156.74C10.72 156.74 7.24 155.84 4.6 154.04C1.84 152.36 0.459999 149.96 0.459999 146.84C0.459999 144.68 1.18 142.76 2.62 141.08C4.06 139.52 6.1 138.74 8.74 138.74C11.38 138.74 13.42 139.46 14.86 140.9C16.3 142.46 17.62 144.56 18.82 147.2C19.66 149.12 20.5 150.56 21.34 151.52C22.18 152.48 23.2 152.96 24.4 152.96C27.52 152.96 29.8 150.74 31.24 146.3C32.8 141.98 33.58 134.84 33.58 124.88V15.08C33.58 11.48 33.16 8.84 32.32 7.16C31.6 5.47999 30.1 4.33999 27.82 3.73999C25.66 3.01999 22.24 2.65999 17.56 2.65999C17.32 2.65999 17.2 2.29999 17.2 1.58C17.2 0.859999 17.32 0.5 17.56 0.5L28.36 0.679998C34.12 0.919995 38.68 1.03999 42.04 1.03999C45.28 1.03999 49.42 0.919995 54.46 0.679998L62.56 0.5ZM159.041 101.66C159.401 101.66 159.701 101.96 159.941 102.56C160.181 103.16 160.121 103.58 159.761 103.82L136.181 115.16L135.461 115.34C134.261 115.34 133.181 114.02 132.221 111.38C131.261 108.62 130.721 104.96 130.601 100.4C122.201 110.12 113.321 114.98 103.961 114.98C97.4814 114.98 92.4414 113 88.8414 109.04C85.2414 104.96 83.4414 99.44 83.4414 92.48V65.66C83.4414 57.5 81.5814 53.42 77.8614 53.42C76.6614 53.42 74.9814 53.9 72.8214 54.86H72.6414C72.1614 54.86 71.8014 54.56 71.5614 53.96C71.3214 53.36 71.3814 52.94 71.7414 52.7L94.6014 42.08L95.3214 41.9C95.8014 41.9 96.3414 42.14 96.9414 42.62C97.5414 43.1 97.8414 43.52 97.8414 43.88V84.74C97.8414 91.46 99.0414 96.5 101.441 99.86C103.961 103.1 107.741 104.72 112.781 104.72C115.781 104.72 118.841 104 121.961 102.56C125.201 101.12 128.081 99.14 130.601 96.62V65.66C130.601 61.46 130.121 58.4 129.161 56.48C128.321 54.44 126.941 53.42 125.021 53.42C123.941 53.42 122.261 53.9 119.981 54.86H119.801C119.321 54.86 118.961 54.56 118.721 53.96C118.481 53.24 118.601 52.82 119.081 52.7L141.761 42.08C142.001 41.96 142.301 41.9 142.661 41.9C143.141 41.9 143.681 42.14 144.281 42.62C144.881 43.1 145.181 43.52 145.181 43.88V92.66C145.181 96.86 145.601 99.8 146.441 101.48C147.281 103.16 148.661 104 150.581 104C152.021 104 154.721 103.28 158.681 101.84L159.041 101.66ZM180.277 52.88C180.277 56.6 181.537 59.72 184.057 62.24C186.697 64.76 190.477 67.4 195.397 70.16C199.717 72.56 203.017 74.54 205.297 76.1C207.697 77.66 209.737 79.76 211.417 82.4C213.217 85.04 214.117 88.22 214.117 91.94C214.117 96.02 213.097 99.8 211.057 103.28C209.017 106.76 205.957 109.58 201.877 111.74C197.917 113.9 193.177 114.98 187.657 114.98C181.057 114.98 174.997 113.3 169.477 109.94C168.757 109.22 168.397 108.5 168.397 107.78L168.037 91.22C168.037 90.86 168.337 90.68 168.937 90.68C169.657 90.56 170.077 90.62 170.197 90.86C172.237 96.86 175.297 101.78 179.377 105.62C183.577 109.46 188.017 111.38 192.697 111.38C195.697 111.38 198.037 110.6 199.717 109.04C201.397 107.48 202.237 105.14 202.237 102.02C202.237 97.46 200.917 93.86 198.277 91.22C195.637 88.46 191.797 85.76 186.757 83.12C182.677 80.96 179.497 79.16 177.217 77.72C174.937 76.16 172.957 74.12 171.277 71.6C169.717 68.96 168.937 65.72 168.937 61.88C168.937 55.04 171.397 49.94 176.317 46.58C181.357 43.22 187.417 41.54 194.497 41.54C199.177 41.54 203.977 42.44 208.897 44.24C209.977 44.72 210.517 45.38 210.517 46.22C210.517 48.98 210.457 51.14 210.337 52.7L210.157 61.34C210.157 61.7 209.797 61.88 209.077 61.88C208.357 61.88 207.997 61.7 207.997 61.34C207.997 58.94 207.037 56.48 205.117 53.96C203.197 51.32 200.737 49.16 197.737 47.48C194.737 45.8 191.677 44.96 188.557 44.96C183.037 44.96 180.277 47.6 180.277 52.88ZM278.362 101.48C278.722 101.48 279.022 101.72 279.262 102.2C279.622 102.68 279.622 103.04 279.262 103.28C274.822 107.48 270.622 110.54 266.662 112.46C262.702 114.26 258.502 115.16 254.062 115.16C248.902 115.16 244.522 113.96 240.922 111.56C237.442 109.04 235.702 104.9 235.702 99.14V58.46C235.702 54.5 235.042 51.86 233.722 50.54C232.522 49.22 230.122 48.56 226.522 48.56C226.402 48.56 226.222 48.44 225.982 48.2C225.862 47.84 225.802 47.48 225.802 47.12C225.802 46.76 225.862 46.46 225.982 46.22C226.222 45.86 226.402 45.68 226.522 45.68C237.802 45.2 244.882 40.34 247.762 31.1C248.002 30.62 248.482 30.38 249.202 30.38C250.042 30.38 250.462 30.62 250.462 31.1V45.32C256.102 45.2 264.082 44.6 274.402 43.52C274.642 43.52 274.882 44 275.122 44.96C275.482 45.8 275.662 46.76 275.662 47.84C275.662 48.92 275.422 50 274.942 51.08C274.582 52.16 274.162 52.64 273.682 52.52C266.962 50.96 259.222 50 250.462 49.64V93.2C250.462 97.88 251.602 101.36 253.882 103.64C256.282 105.8 259.582 106.88 263.782 106.88C268.822 106.88 273.562 105.14 278.002 101.66L278.362 101.48ZM39.52 237.58C39.52 242.02 40.6 245.98 42.76 249.46C45.04 252.82 47.8 255.76 51.04 258.28C54.4 260.8 58.9 263.8 64.54 267.28C70.66 271.12 75.46 274.42 78.94 277.18C82.54 279.94 85.54 283.36 87.94 287.44C90.46 291.4 91.72 296.08 91.72 301.48C91.72 307.6 90.1 313.06 86.86 317.86C83.74 322.66 79.24 326.44 73.36 329.2C67.6 331.84 61 333.16 53.56 333.16C48.52 333.16 43.3 332.5 37.9 331.18C32.62 329.86 28.6 328.24 25.84 326.32C24.76 325.6 24.16 324.46 24.04 322.9L22.96 295.54V295.36C22.96 294.88 23.26 294.64 23.86 294.64C24.46 294.52 24.82 294.7 24.94 295.18C28.9 305.14 33.4 313.3 38.44 319.66C43.6 326.02 50.14 329.2 58.06 329.2C63.22 329.2 67.54 327.82 71.02 325.06C74.5 322.18 76.24 317.44 76.24 310.84C76.24 305.56 75.04 300.94 72.64 296.98C70.36 293.02 67.48 289.72 64 287.08C60.64 284.44 56.02 281.2 50.14 277.36C44.38 273.64 39.88 270.52 36.64 268C33.4 265.36 30.64 262.18 28.36 258.46C26.08 254.62 24.94 250.18 24.94 245.14C24.94 238.9 26.68 233.62 30.16 229.3C33.64 224.98 38.14 221.8 43.66 219.76C49.3 217.6 55.18 216.52 61.3 216.52C65.38 216.52 69.46 216.94 73.54 217.78C77.62 218.5 81.04 219.46 83.8 220.66C85.6 221.38 86.5 222.52 86.5 224.08L87.04 248.56C87.04 248.92 86.68 249.16 85.96 249.28C85.36 249.4 85 249.28 84.88 248.92C82.48 241.6 79.24 235 75.16 229.12C71.2 223.12 65.2 220.12 57.16 220.12C51.76 220.12 47.44 221.68 44.2 224.8C41.08 227.92 39.52 232.18 39.52 237.58ZM176.47 321.28C176.95 321.28 177.25 321.58 177.37 322.18C177.49 322.66 177.31 323.02 176.83 323.26L158.29 332.08C157.81 332.32 157.27 332.44 156.67 332.44C154.87 332.44 153.13 331.42 151.45 329.38C149.89 327.22 148.87 324.4 148.39 320.92L140.11 326.68C137.23 328.72 134.59 330.16 132.19 331C129.91 331.84 127.33 332.26 124.45 332.26C119.53 332.26 115.75 331.12 113.11 328.84C110.59 326.44 109.33 323.32 109.33 319.48C109.33 316.24 110.17 313.6 111.85 311.56C113.65 309.52 115.87 307.9 118.51 306.7C121.27 305.38 125.29 303.76 130.57 301.84L148.03 295.36V284.56C148.03 277.12 147.25 271.72 145.69 268.36C144.25 264.88 141.91 263.14 138.67 263.14C134.71 263.14 131.83 264.64 130.03 267.64C128.35 270.52 127.33 273.76 126.97 277.36C126.25 283.48 123.19 286.54 117.79 286.54C115.15 286.54 113.17 285.94 111.85 284.74C110.65 283.54 110.05 282.04 110.05 280.24C110.05 276.88 112.03 273.64 115.99 270.52C120.07 267.28 124.93 264.7 130.57 262.78C136.33 260.74 141.37 259.72 145.69 259.72C150.85 259.72 154.93 261.34 157.93 264.58C161.05 267.82 162.61 272.68 162.61 279.16V311.56C162.61 315.28 163.21 318.1 164.41 320.02C165.61 321.94 167.35 322.9 169.63 322.9C171.43 322.9 173.59 322.36 176.11 321.28H176.47ZM148.03 318.04V316.24V298.42L137.23 302.92C134.11 304.12 131.53 305.56 129.49 307.24C127.57 308.8 126.61 311.08 126.61 314.08C126.61 316.96 127.51 319.3 129.31 321.1C131.23 322.78 133.51 323.62 136.15 323.62C138.31 323.62 140.59 322.9 142.99 321.46L148.03 318.04ZM254.426 261.52C254.666 261.52 254.786 261.88 254.786 262.6C254.786 263.32 254.666 263.68 254.426 263.68C250.826 263.68 247.706 265.12 245.066 268C242.546 270.88 240.206 275.26 238.046 281.14L217.346 336.04C213.026 347.56 208.886 356.62 204.926 363.22C200.966 369.82 196.946 374.5 192.866 377.26C188.786 380.14 184.286 381.58 179.366 381.58C176.006 381.58 173.426 380.86 171.626 379.42C169.706 378.1 168.746 376.06 168.746 373.3C168.746 370.9 169.526 369.04 171.086 367.72C172.526 366.52 174.326 365.92 176.486 365.92C177.926 365.92 179.126 366.1 180.086 366.46C181.166 366.94 182.246 367.54 183.326 368.26C184.526 368.98 185.546 369.52 186.386 369.88C187.346 370.24 188.486 370.42 189.806 370.42C192.566 370.42 195.086 369.28 197.366 367C199.766 364.84 202.226 361.18 204.746 356.02C207.386 350.86 210.506 343.54 214.106 334.06L185.666 276.46C183.026 271.3 180.926 267.88 179.366 266.2C177.926 264.52 176.126 263.68 173.966 263.68C173.606 263.68 173.426 263.32 173.426 262.6C173.426 261.88 173.606 261.52 173.966 261.52C177.086 261.52 179.486 261.58 181.166 261.7L188.186 261.88L200.426 261.7C202.226 261.58 204.686 261.52 207.806 261.52C208.166 261.52 208.346 261.88 208.346 262.6C208.346 263.32 208.166 263.68 207.806 263.68C204.566 263.68 202.166 263.98 200.606 264.58C199.166 265.06 198.446 266.02 198.446 267.46C198.446 268.54 198.746 269.62 199.346 270.7L221.306 316.06L233.366 281.14C234.446 278.02 234.986 275.38 234.986 273.22C234.986 266.86 230.966 263.68 222.926 263.68C222.686 263.68 222.566 263.32 222.566 262.6C222.566 261.88 222.686 261.52 222.926 261.52C226.166 261.52 228.626 261.58 230.306 261.7L241.106 261.88L248.126 261.7C249.446 261.58 251.546 261.52 254.426 261.52ZM141.22 546.84C141.58 546.84 141.76 547.2 141.76 547.92C141.76 548.64 141.58 549 141.22 549C137.14 549 133.84 548.94 131.32 548.82L118.18 548.64L102.88 548.82C100.72 548.94 97.84 549 94.24 549C93.88 549 93.7 548.64 93.7 547.92C93.7 547.2 93.88 546.84 94.24 546.84C98.8 546.84 102.1 546.54 104.14 545.94C106.18 545.34 107.56 544.2 108.28 542.52C109 540.84 109.36 538.14 109.36 534.42V492.84H47.62V534.42C47.62 538.02 47.98 540.72 48.7 542.52C49.42 544.2 50.8 545.34 52.84 545.94C55 546.54 58.36 546.84 62.92 546.84C63.16 546.84 63.28 547.2 63.28 547.92C63.28 548.64 63.16 549 62.92 549C58.84 549 55.66 548.94 53.38 548.82L38.44 548.64L25.3 548.82C23.02 548.94 19.84 549 15.76 549C15.52 549 15.4 548.64 15.4 547.92C15.4 547.2 15.52 546.84 15.76 546.84C20.08 546.84 23.26 546.54 25.3 545.94C27.34 545.34 28.72 544.2 29.44 542.52C30.16 540.72 30.52 538.02 30.52 534.42V451.08C30.52 447.48 30.16 444.84 29.44 443.16C28.72 441.48 27.34 440.34 25.3 439.74C23.26 439.02 20.14 438.66 15.94 438.66C15.7 438.66 15.58 438.3 15.58 437.58C15.58 436.86 15.7 436.5 15.94 436.5L25.48 436.68C31 436.92 35.32 437.04 38.44 437.04C42.64 437.04 47.62 436.92 53.38 436.68L62.92 436.5C63.16 436.5 63.28 436.86 63.28 437.58C63.28 438.3 63.16 438.66 62.92 438.66C58.48 438.66 55.18 439.02 53.02 439.74C50.98 440.46 49.54 441.72 48.7 443.52C47.98 445.2 47.62 447.84 47.62 451.44V488.16H109.36V451.44C109.36 447.84 109 445.2 108.28 443.52C107.56 441.72 106.12 440.46 103.96 439.74C101.92 439.02 98.68 438.66 94.24 438.66C93.88 438.66 93.7 438.3 93.7 437.58C93.7 436.86 93.88 436.5 94.24 436.5L102.88 436.68C108.64 436.92 113.74 437.04 118.18 437.04C121.42 437.04 125.8 436.92 131.32 436.68L141.22 436.5C141.58 436.5 141.76 436.86 141.76 437.58C141.76 438.3 141.58 438.66 141.22 438.66C136.9 438.66 133.72 439.02 131.68 439.74C129.76 440.34 128.44 441.48 127.72 443.16C127 444.84 126.64 447.48 126.64 451.08V534.42C126.64 538.02 127 540.72 127.72 542.52C128.44 544.2 129.76 545.34 131.68 545.94C133.72 546.54 136.9 546.84 141.22 546.84ZM171.589 458.82C168.469 458.82 166.009 457.98 164.209 456.3C162.529 454.62 161.689 452.22 161.689 449.1C161.689 446.1 162.529 443.82 164.209 442.26C166.009 440.58 168.469 439.74 171.589 439.74C174.589 439.74 176.929 440.58 178.609 442.26C180.289 443.82 181.129 446.1 181.129 449.1C181.129 452.22 180.289 454.62 178.609 456.3C177.049 457.98 174.709 458.82 171.589 458.82ZM155.029 549C154.669 549 154.489 548.64 154.489 547.92C154.489 547.2 154.669 546.84 155.029 546.84C159.109 546.84 161.809 546 163.129 544.32C164.449 542.64 165.109 539.34 165.109 534.42V501.66C165.109 497.58 164.689 494.64 163.849 492.84C163.009 490.92 161.569 489.96 159.529 489.96C157.729 489.96 155.389 490.68 152.509 492.12H152.329C151.849 492.12 151.489 491.82 151.249 491.22C151.009 490.62 151.069 490.2 151.429 489.96L177.349 477.9L177.889 477.72C178.369 477.72 178.849 478.02 179.329 478.62C179.929 479.1 180.229 479.52 180.229 479.88V483.66C179.989 488.7 179.869 494.64 179.869 501.48V534.42C179.869 539.34 180.529 542.64 181.849 544.32C183.289 546 186.049 546.84 190.129 546.84C190.489 546.84 190.669 547.2 190.669 547.92C190.669 548.64 190.489 549 190.129 549C187.129 549 184.729 548.94 182.929 548.82L172.489 548.64L162.049 548.82C160.369 548.94 158.029 549 155.029 549ZM249.169 437.94C248.929 437.34 250.009 436.86 252.409 436.5C254.929 436.02 257.569 435.78 260.329 435.78C262.969 435.78 265.549 436.02 268.069 436.5C270.589 436.86 271.729 437.34 271.489 437.94C269.089 447.66 267.229 458.28 265.909 469.8C264.709 481.2 263.569 495.06 262.489 511.38L262.309 514.98C262.309 515.46 261.529 515.7 259.969 515.7C258.289 515.7 257.449 515.46 257.449 514.98C256.609 498.18 255.589 483.72 254.389 471.6C253.309 459.36 251.569 448.14 249.169 437.94ZM259.249 550.98C256.249 550.98 253.849 550.08 252.049 548.28C250.249 546.48 249.349 544.08 249.349 541.08C249.349 538.2 250.249 535.92 252.049 534.24C253.849 532.56 256.249 531.72 259.249 531.72C262.369 531.72 264.769 532.56 266.449 534.24C268.129 535.92 268.969 538.2 268.969 541.08C268.969 544.2 268.129 546.66 266.449 548.46C264.769 550.14 262.369 550.98 259.249 550.98Z" fill="#4971FF"/>
</svg>

<svg xmlns="http://www.w3.org/2000/svg" width="280" height="551" fill="none" xmlns:v="https://vecta.io/nano"><path d="M62.56.5c.36 0 .54.36.54 1.08s-.18 1.08-.54 1.08c-3.36 0-5.88.36-7.56 1.08-1.56.72-2.64 1.98-3.24 3.78-.48 1.68-.72 4.32-.72 7.92v99.72c0 12.96-3.18 23.1-9.54 30.42-6.24 7.44-15.06 11.16-26.46 11.16-4.32 0-7.8-.9-10.44-2.7-2.76-1.68-4.14-4.08-4.14-7.2 0-2.16.72-4.08 2.16-5.76 1.44-1.56 3.48-2.34 6.12-2.34s4.68.72 6.12 2.16c1.44 1.56 2.76 3.66 3.96 6.3.84 1.92 1.68 3.36 2.52 4.32s1.86 1.44 3.06 1.44c3.12 0 5.4-2.22 6.84-6.66 1.56-4.32 2.34-11.46 2.34-21.42V15.08c0-3.6-.42-6.24-1.26-7.92-.72-1.68-2.22-2.82-4.5-3.42-2.16-.72-5.58-1.08-10.26-1.08-.24 0-.36-.36-.36-1.08S17.32.5 17.56.5l10.8.18c5.76.24 10.32.36 13.68.36 3.24 0 7.38-.12 12.42-.36l8.1-.18zm96.481 101.16c.36 0 .66.3.9.9s.18 1.02-.18 1.26l-23.58 11.34-.72.18c-1.2 0-2.28-1.32-3.24-3.96-.96-2.76-1.5-6.42-1.62-10.98-8.4 9.72-17.28 14.58-26.64 14.58-6.48 0-11.52-1.98-15.12-5.94-3.6-4.08-5.4-9.6-5.4-16.56V65.66c0-8.16-1.86-12.24-5.58-12.24-1.2 0-2.88.48-5.04 1.44h-.18c-.48 0-.84-.3-1.08-.9s-.18-1.02.18-1.26l22.86-10.62.72-.18c.48 0 1.02.24 1.62.72s.9.9.9 1.26v40.86c0 6.72 1.2 11.76 3.6 15.12 2.52 3.24 6.3 4.86 11.34 4.86 3 0 6.06-.72 9.18-2.16 3.24-1.44 6.12-3.42 8.64-5.94V65.66c0-4.2-.48-7.26-1.44-9.18-.84-2.04-2.22-3.06-4.14-3.06-1.08 0-2.76.48-5.04 1.44h-.18c-.48 0-.84-.3-1.08-.9-.24-.72-.12-1.14.36-1.26l22.68-10.62c.24-.12.54-.18.9-.18.48 0 1.02.24 1.62.72s.9.9.9 1.26v48.78c0 4.2.42 7.14 1.26 8.82s2.22 2.52 4.14 2.52c1.44 0 4.14-.72 8.1-2.16l.36-.18zm21.236-48.78c0 3.72 1.26 6.84 3.78 9.36 2.64 2.52 6.42 5.16 11.34 7.92 4.32 2.4 7.62 4.38 9.9 5.94 2.4 1.56 4.44 3.66 6.12 6.3 1.8 2.64 2.7 5.82 2.7 9.54 0 4.08-1.02 7.86-3.06 11.34s-5.1 6.3-9.18 8.46c-3.96 2.16-8.7 3.24-14.22 3.24-6.6 0-12.66-1.68-18.18-5.04-.72-.72-1.08-1.44-1.08-2.16l-.36-16.56c0-.36.3-.54.9-.54.72-.12 1.14-.06 1.26.18 2.04 6 5.1 10.92 9.18 14.76 4.2 3.84 8.64 5.76 13.32 5.76 3 0 5.34-.78 7.02-2.34s2.52-3.9 2.52-7.02c0-4.56-1.32-8.16-3.96-10.8-2.64-2.76-6.48-5.46-11.52-8.1-4.08-2.16-7.26-3.96-9.54-5.4-2.28-1.56-4.26-3.6-5.94-6.12-1.56-2.64-2.34-5.88-2.34-9.72 0-6.84 2.46-11.94 7.38-15.3 5.04-3.36 11.1-5.04 18.18-5.04 4.68 0 9.48.9 14.4 2.7 1.08.48 1.62 1.14 1.62 1.98 0 2.76-.06 4.92-.18 6.48l-.18 8.64c0 .36-.36.54-1.08.54s-1.08-.18-1.08-.54c0-2.4-.96-4.86-2.88-7.38-1.92-2.64-4.38-4.8-7.38-6.48s-6.06-2.52-9.18-2.52c-5.52 0-8.28 2.64-8.28 7.92zm98.085 48.6c.36 0 .66.24.9.72.36.48.36.84 0 1.08-4.44 4.2-8.64 7.26-12.6 9.18-3.96 1.8-8.16 2.7-12.6 2.7-5.16 0-9.54-1.2-13.14-3.6-3.48-2.52-5.22-6.66-5.22-12.42V58.46c0-3.96-.66-6.6-1.98-7.92-1.2-1.32-3.6-1.98-7.2-1.98-.12 0-.3-.12-.54-.36-.12-.36-.18-.72-.18-1.08s.06-.66.18-.9c.24-.36.42-.54.54-.54 11.28-.48 18.36-5.34 21.24-14.58.24-.48.72-.72 1.44-.72.84 0 1.26.24 1.26.72v14.22c5.64-.12 13.62-.72 23.94-1.8.24 0 .48.48.72 1.44.36.84.54 1.8.54 2.88s-.24 2.16-.72 3.24c-.36 1.08-.78 1.56-1.26 1.44-6.72-1.56-14.46-2.52-23.22-2.88V93.2c0 4.68 1.14 8.16 3.42 10.44 2.4 2.16 5.7 3.24 9.9 3.24 5.04 0 9.78-1.74 14.22-5.22l.36-.18zM39.52 237.58c0 4.44 1.08 8.4 3.24 11.88 2.28 3.36 5.04 6.3 8.28 8.82 3.36 2.52 7.86 5.52 13.5 9 6.12 3.84 10.92 7.14 14.4 9.9 3.6 2.76 6.6 6.18 9 10.26 2.52 3.96 3.78 8.64 3.78 14.04 0 6.12-1.62 11.58-4.86 16.38-3.12 4.8-7.62 8.58-13.5 11.34-5.76 2.64-12.36 3.96-19.8 3.96-5.04 0-10.26-.66-15.66-1.98-5.28-1.32-9.3-2.94-12.06-4.86-1.08-.72-1.68-1.86-1.8-3.42l-1.08-27.36v-.18c0-.48.3-.72.9-.72.6-.12.96.06 1.08.54 3.96 9.96 8.46 18.12 13.5 24.48 5.16 6.36 11.7 9.54 19.62 9.54 5.16 0 9.48-1.38 12.96-4.14 3.48-2.88 5.22-7.62 5.22-14.22 0-5.28-1.2-9.9-3.6-13.86-2.28-3.96-5.16-7.26-8.64-9.9-3.36-2.64-7.98-5.88-13.86-9.72-5.76-3.72-10.26-6.84-13.5-9.36-3.24-2.64-6-5.82-8.28-9.54-2.28-3.84-3.42-8.28-3.42-13.32 0-6.24 1.74-11.52 5.22-15.84s7.98-7.5 13.5-9.54c5.64-2.16 11.52-3.24 17.64-3.24 4.08 0 8.16.42 12.24 1.26 4.08.72 7.5 1.68 10.26 2.88 1.8.72 2.7 1.86 2.7 3.42l.54 24.48c0 .36-.36.6-1.08.72-.6.12-.96 0-1.08-.36-2.4-7.32-5.64-13.92-9.72-19.8-3.96-6-9.96-9-18-9-5.4 0-9.72 1.56-12.96 4.68-3.12 3.12-4.68 7.38-4.68 12.78zm136.95 83.7c.48 0 .78.3.9.9.12.48-.06.84-.54 1.08l-18.54 8.82c-.48.24-1.02.36-1.62.36-1.8 0-3.54-1.02-5.22-3.06-1.56-2.16-2.58-4.98-3.06-8.46l-8.28 5.76c-2.88 2.04-5.52 3.48-7.92 4.32-2.28.84-4.86 1.26-7.74 1.26-4.92 0-8.7-1.14-11.34-3.42-2.52-2.4-3.78-5.52-3.78-9.36 0-3.24.84-5.88 2.52-7.92 1.8-2.04 4.02-3.66 6.66-4.86 2.76-1.32 6.78-2.94 12.06-4.86l17.46-6.48v-10.8c0-7.44-.78-12.84-2.34-16.2-1.44-3.48-3.78-5.22-7.02-5.22-3.96 0-6.84 1.5-8.64 4.5-1.68 2.88-2.7 6.12-3.06 9.72-.72 6.12-3.78 9.18-9.18 9.18-2.64 0-4.62-.6-5.94-1.8-1.2-1.2-1.8-2.7-1.8-4.5 0-3.36 1.98-6.6 5.94-9.72 4.08-3.24 8.94-5.82 14.58-7.74 5.76-2.04 10.8-3.06 15.12-3.06 5.16 0 9.24 1.62 12.24 4.86 3.12 3.24 4.68 8.1 4.68 14.58v32.4c0 3.72.6 6.54 1.8 8.46s2.94 2.88 5.22 2.88c1.8 0 3.96-.54 6.48-1.62h.36zm-28.44-3.24v-1.8-17.82l-10.8 4.5c-3.12 1.2-5.7 2.64-7.74 4.32-1.92 1.56-2.88 3.84-2.88 6.84 0 2.88.9 5.22 2.7 7.02 1.92 1.68 4.2 2.52 6.84 2.52 2.16 0 4.44-.72 6.84-2.16l5.04-3.42zm106.396-56.52c.24 0 .36.36.36 1.08s-.12 1.08-.36 1.08c-3.6 0-6.72 1.44-9.36 4.32-2.52 2.88-4.86 7.26-7.02 13.14l-20.7 54.9c-4.32 11.52-8.46 20.58-12.42 27.18s-7.98 11.28-12.06 14.04c-4.08 2.88-8.58 4.32-13.5 4.32-3.36 0-5.94-.72-7.74-2.16-1.92-1.32-2.88-3.36-2.88-6.12 0-2.4.78-4.26 2.34-5.58 1.44-1.2 3.24-1.8 5.4-1.8 1.44 0 2.64.18 3.6.54 1.08.48 2.16 1.08 3.24 1.8 1.2.72 2.22 1.26 3.06 1.62.96.36 2.1.54 3.42.54 2.76 0 5.28-1.14 7.56-3.42 2.4-2.16 4.86-5.82 7.38-10.98 2.64-5.16 5.76-12.48 9.36-21.96l-28.44-57.6c-2.64-5.16-4.74-8.58-6.3-10.26-1.44-1.68-3.24-2.52-5.4-2.52-.36 0-.54-.36-.54-1.08s.18-1.08.54-1.08c3.12 0 5.52.06 7.2.18l7.02.18 12.24-.18c1.8-.12 4.26-.18 7.38-.18.36 0 .54.36.54 1.08s-.18 1.08-.54 1.08c-3.24 0-5.64.3-7.2.9-1.44.48-2.16 1.44-2.16 2.88 0 1.08.3 2.16.9 3.24l21.96 45.36 12.06-34.92c1.08-3.12 1.62-5.76 1.62-7.92 0-6.36-4.02-9.54-12.06-9.54-.24 0-.36-.36-.36-1.08s.12-1.08.36-1.08c3.24 0 5.7.06 7.38.18l10.8.18 7.02-.18c1.32-.12 3.42-.18 6.3-.18zM141.22 546.84c.36 0 .54.36.54 1.08s-.18 1.08-.54 1.08c-4.08 0-7.38-.06-9.9-.18l-13.14-.18-15.3.18c-2.16.12-5.04.18-8.64.18-.36 0-.54-.36-.54-1.08s.18-1.08.54-1.08c4.56 0 7.86-.3 9.9-.9s3.42-1.74 4.14-3.42 1.08-4.38 1.08-8.1v-41.58H47.62v41.58c0 3.6.36 6.3 1.08 8.1.72 1.68 2.1 2.82 4.14 3.42 2.16.6 5.52.9 10.08.9.24 0 .36.36.36 1.08s-.12 1.08-.36 1.08c-4.08 0-7.26-.06-9.54-.18l-14.94-.18-13.14.18c-2.28.12-5.46.18-9.54.18-.24 0-.36-.36-.36-1.08s.12-1.08.36-1.08c4.32 0 7.5-.3 9.54-.9s3.42-1.74 4.14-3.42c.72-1.8 1.08-4.5 1.08-8.1v-83.34c0-3.6-.36-6.24-1.08-7.92s-2.1-2.82-4.14-3.42c-2.04-.72-5.16-1.08-9.36-1.08-.24 0-.36-.36-.36-1.08s.12-1.08.36-1.08l9.54.18 12.96.36c4.2 0 9.18-.12 14.94-.36l9.54-.18c.24 0 .36.36.36 1.08s-.12 1.08-.36 1.08c-4.44 0-7.74.36-9.9 1.08-2.04.72-3.48 1.98-4.32 3.78-.72 1.68-1.08 4.32-1.08 7.92v36.72h61.74v-36.72c0-3.6-.36-6.24-1.08-7.92-.72-1.8-2.16-3.06-4.32-3.78-2.04-.72-5.28-1.08-9.72-1.08-.36 0-.54-.36-.54-1.08s.18-1.08.54-1.08l8.64.18c5.76.24 10.86.36 15.3.36 3.24 0 7.62-.12 13.14-.36l9.9-.18c.36 0 .54.36.54 1.08s-.18 1.08-.54 1.08c-4.32 0-7.5.36-9.54 1.08-1.92.6-3.24 1.74-3.96 3.42s-1.08 4.32-1.08 7.92v83.34c0 3.6.36 6.3 1.08 8.1.72 1.68 2.04 2.82 3.96 3.42 2.04.6 5.22.9 9.54.9zm30.369-88.02c-3.12 0-5.58-.84-7.38-2.52-1.68-1.68-2.52-4.08-2.52-7.2 0-3 .84-5.28 2.52-6.84 1.8-1.68 4.26-2.52 7.38-2.52 3 0 5.34.84 7.02 2.52 1.68 1.56 2.52 3.84 2.52 6.84 0 3.12-.84 5.52-2.52 7.2-1.56 1.68-3.9 2.52-7.02 2.52zM155.029 549c-.36 0-.54-.36-.54-1.08s.18-1.08.54-1.08c4.08 0 6.78-.84 8.1-2.52s1.98-4.98 1.98-9.9v-32.76c0-4.08-.42-7.02-1.26-8.82-.84-1.92-2.28-2.88-4.32-2.88-1.8 0-4.14.72-7.02 2.16h-.18c-.48 0-.84-.3-1.08-.9s-.18-1.02.18-1.26l25.92-12.06.54-.18c.48 0 .96.3 1.44.9.6.48.9.9.9 1.26v3.78c-.24 5.04-.36 10.98-.36 17.82v32.94c0 4.92.66 8.22 1.98 9.9 1.44 1.68 4.2 2.52 8.28 2.52.36 0 .54.36.54 1.08s-.18 1.08-.54 1.08c-3 0-5.4-.06-7.2-.18l-10.44-.18-10.44.18c-1.68.12-4.02.18-7.02.18zm94.14-111.06c-.24-.6.84-1.08 3.24-1.44 2.52-.48 5.16-.72 7.92-.72 2.64 0 5.22.24 7.74.72 2.52.36 3.66.84 3.42 1.44-2.4 9.72-4.26 20.34-5.58 31.86-1.2 11.4-2.34 25.26-3.42 41.58l-.18 3.6c0 .48-.78.72-2.34.72-1.68 0-2.52-.24-2.52-.72-.84-16.8-1.86-31.26-3.06-43.38-1.08-12.24-2.82-23.46-5.22-33.66zm10.08 113.04c-3 0-5.4-.9-7.2-2.7s-2.7-4.2-2.7-7.2c0-2.88.9-5.16 2.7-6.84s4.2-2.52 7.2-2.52c3.12 0 5.52.84 7.2 2.52s2.52 3.96 2.52 6.84c0 3.12-.84 5.58-2.52 7.38-1.68 1.68-4.08 2.52-7.2 2.52z" fill="#4971ff"/></svg>
